X: 7
T: Ajnzerica
F: http://www.youtube.com/watch?v=7IvtIfkn97w
O: Croatia
Z: www.tamburaland.com
M: 2/4
L: 1/8
Q: 1/4=126
K: Glyd
%%MIDI program 42
%%MIDI chordprog 1
%%MIDI bassprog 33
|:"D"D D2 D|DC B,A,|D D2 D| D2 EF|"G"G G2 G|GF ED|
G G2 G|G2 FE|"D"D D2 D|DC B,A,|D D2 D|D2 EF|"G"GzGz|Gz z2:|
|:"D"D2 EF|"G"G2 FE|"D"DC CC|D2 zD-|DE "A"CE|[1C2 z D/C/|D2 B,A,|DC B,A,:|
[2 GA, CA,|"D"DzDz|Dz z2|:"D" D2 EF|"G"G2 FE|"D"DC DC|D2 zD|"A"CECE|
[1C2 zC|D3/2C/ B,A,|DC B,A,:|[2GA, B,A,|"D"DzDz|Dzz2|
|:"G"BB BB|BB BB|BA GA|B2z2:|"D"AA/B/ AB|AB A3/2A/|"G"GzGz|GzG2|
|:"G"BB BB|BB BB|BA GA|B2z2:|"D"AA/B/ AB|AB A3/2A/|"G"GzGz|GzG2|



